X:368
T:Crusader's March, The
R:March
M:4/4
L:1/8
K:A
AB |\
"A" c2 c2 c2 Ac |      e2 e>f e2 fg | "D"  a>g fe "A/F#" ceAB | "B7" cB B>c "E7" B2 AB  |
"A" c2 c2 c2 Ac | "Cm" e2 e>f e2 df | "Bm" ecdB   "E7"   cedB | "A"  BA A>B      A2 cd ||
||\
"A" e2 e>f edcB | "Fm" BA A>B A2 fg | "D"  a>g fe "A/F#" ceAB | "B7" cB B>c "E7" B2 AB  |
"A" c2 c2 c2 Ac | "Cm" e2 e>f e2 df | "Bm" ecdB   "E7"   cedB | "A"  BA A>B      A2     |]
